icons/vsix_dark.svg

<svg xmlns="http://www.w3.org/2000/svg" viewBox="0 0 32 32"><g fill="#cfcfcf" data-iconColor="VSCode Extension Dark"><path d="M2 16v14h13v-6H8V8h7V2H2ZM17 5v3h4V6h5v5h-2v4h6V2H17Z"/><path d="M10 16v6h12V10H10Z"/><path d="M24 20.5V24h-7v6h13V17h-6Z"/></g></svg>

<!--
  - The MIT License (MIT)
  -
  - Copyright (c) 2015-2024 Elior "Mallowigi" Boukhobza
  -
  - Permission is hereby granted, free of charge, to any person obtaining a copy
  - of this software and associated documentation files (the "Software"), to deal
  - in the Software without restriction, including without limitation the rights
  - to use, copy, modify, merge, publish, distribute, sublicense, and/or sell
  - copies of the Software, and to permit persons to whom the Software is
  - furnished to do so, subject to the following conditions:
  -
  - The above copyright notice and this permission notice shall be included in all
  - copies or substantial portions of the Software.
  -
  - THE SOFTWARE IS PROVIDED "AS IS", WITHOUT WARRANTY OF ANY KIND, EXPRESS OR
  - IMPLIED, INCLUDING BUT NOT LIMITED TO THE WARRANTIES OF MERCHANTABILITY,
  - FITNESS FOR A PARTICULAR PURPOSE AND NONINFRINGEMENT. IN NO EVENT SHALL THE
  - AUTHORS OR COPYRIGHT HOLDERS BE LIABLE FOR ANY CLAIM, DAMAGES OR OTHER
  - LIABILITY, WHETHER IN AN ACTION OF CONTRACT, TORT OR OTHERWISE, ARISING FROM,
  - OUT OF OR IN CONNECTION WITH THE SOFTWARE OR THE USE OR OTHER DEALINGS IN THE
  - SOFTWARE.
  -
  -->

<svg  xmlns="http://www.w3.org/2000/svg" viewBox="0 0 32 32" width="16px" height="16px">
  <g fill="#cfcfcf" data-iconColor="VSCode Extension Dark">
    <path d="M2,16V30H15V24H8V8h7V2H2Z"/>
    <path d="M17,5V8h4V6h5v5H24v4h6V2H17Z"/>
    <path d="M10,16v6H22V10H10Z"/>
    <path d="M24,20.5V24H17v6H30V17H24Z"/>
  </g>
</svg>
